X:1
T:SLEEP
C:Earl LEBIEG (1923)
O:Chords: Anthologie des grilles de jazz, p. 368 (data/chords/05_annotated/368_01_SLEEP.json). Melody: AGJ melody ms (data/melody/01_crops/735_01_SLEEP.png).
R:standard, up tempo
M:4/4
L:1/8
K:C
"^A" G8 | G8 | G8- | G4 B2 A2 |
G8 |G8 |G8- | G4 c2 A2  |
"^B"G8 |A8 |B8- |B4 e2 d2 |
A8- |A4 e2 d2 |c2 B4 A2 |B2 A4 _A2 |
"^A1"G8 | G8 | G8- | G4 B2 A2 |
G8 |G8 |G8- | G4 c2 A2  |
"^C"G8 |_B8 |A8- |A4 e2 d2 |
G8 | d8 | c8 | c6 z2 |]
